core/schema/project/pipeline/color/luts/project_lut_default.cube
TITLE "Generated by Foundry::LUT"
LUT_3D_SIZE 16
0.000000 0.000000 0.000000
0.000000 0.000000 0.000000
0.000000 0.000000 0.000000
0.078155 0.000000 0.000000
0.123436 0.000000 0.000000
0.166870 0.000000 0.000000
0.219209 0.000000 0.000000
0.288647 0.000000 0.000000
0.372366 0.000000 0.000108
0.479116 0.000000 0.017902
0.610708 0.000000 0.034482
0.752549 0.000000 0.053050
0.891373 0.000000 0.075150
0.992048 0.033596 0.108020
1.000000 0.259145 0.150196
1.000000 0.425578 0.204892
0.000000 0.000000 0.000000
0.000000 0.000000 0.000000
0.033311 0.000000 0.000000
0.096184 0.000000 0.000000
0.135018 0.000000 0.000000
0.180237 0.000000 0.000000
0.237948 0.000000 0.000000
0.311395 0.000000 0.000000
0.400738 0.000000 0.004779
0.515985 0.000000 0.024867
0.651792 0.000000 0.040789
0.794697 0.000000 0.059867
0.925718 0.000000 0.084547
0.999891 0.075876 0.120238
1.000000 0.319638 0.165422
1.000000 0.475694 0.225202
0.000000 0.034664 0.000000
0.000000 0.038451 0.000000
0.037654 0.043585 0.000000
0.091366 0.045211 0.000000
0.141533 0.042191 0.000000
0.193226 0.033185 0.000000
0.258376 0.014478 0.000000
0.336186 0.000000 0.000000
0.431989 0.000000 0.006548
0.554958 0.000000 0.029665
0.693313 0.000000 0.046900
0.835895 0.000000 0.066478
0.955286 0.000000 0.095067
1.000000 0.221129 0.133364
1.000000 0.382088 0.182320
1.000000 0.528281 0.247668
0.000000 0.081640 0.000000
0.000000 0.084957 0.000000
0.000000 0.089191 0.000000
0.087426 0.092641 0.000000
0.146596 0.094832 0.000000
0.207581 0.095328 0.000000
0.279274 0.092542 0.000000
0.362791 0.082527 0.000000
0.466625 0.047530 0.005559
0.595208 0.017926 0.031031
0.734959 0.007287 0.050806
0.873900 0.032861 0.073804
0.979837 0.162328 0.105821
1.000000 0.307339 0.147244
1.000000 0.445476 0.201042
1.000000 0.582343 0.273157
0.000000 0.134089 0.000000
0.000000 0.138136 0.000000
0.000000 0.142999 0.000000
0.052045 0.147366 0.000000
0.142681 0.151799 0.000000
0.217494 0.154719 0.000000
0.299666 0.154698 0.000000
0.392213 0.153386 0.000000
0.504812 0.148484 0.003458
0.636427 0.139504 0.031254
0.776231 0.137940 0.054409
0.907274 0.176093 0.081792
0.994547 0.269920 0.117131
1.000000 0.386107 0.162453
1.000000 0.511146 0.222001
1.000000 0.638130 0.302336
0.000000 0.202233 0.000000
0.000000 0.208237 0.000000
0.000000 0.214324 0.000000
0.000000 0.220029 0.000000
0.098567 0.225308 0.000000
0.209800 0.229649 0.000000
0.312140 0.232804 0.000000
0.422232 0.234821 0.000000
0.545992 0.237062 0.000000
0.678420 0.242268 0.022197
0.815567 0.258486 0.052349
0.933451 0.300216 0.087540
0.999694 0.376320 0.129025
1.000000 0.473889 0.181208
1.000000 0.583480 0.247291
1.000000 0.696044 0.336940
0.000000 0.292577 0.000000
0.000000 0.299507 0.000000
0.000000 0.306449 0.000000
0.000000 0.313787 0.000000
0.000000 0.321241 0.000000
0.154586 0.328190 0.000000
0.302048 0.335325 0.000000
0.439256 0.341330 0.000000
0.581366 0.348424 0.000000
0.717868 0.361190 0.000000
0.848796 0.383487 0.032422
0.950293 0.424466 0.095631
1.000000 0.486763 0.145666
1.000000 0.567922 0.204351
1.000000 0.661566 0.279116
1.000000 0.750257 0.377951
0.000000 0.410978 0.000000
0.000000 0.420454 0.000000
0.000000 0.430014 0.000000
0.000000 0.439745 0.000000
0.000000 0.450082 0.000000
0.000000 0.460407 0.000000
0.231736 0.470500 0.000000
0.425428 0.479612 0.000000
0.593208 0.488456 0.000000
0.746302 0.500026 0.000000
0.871156 0.520458 0.050744
0.956862 0.555500 0.114629
0.999904 0.606121 0.172330
1.000000 0.670464 0.238375
1.000000 0.738799 0.323146
1.000000 0.801086 0.426176
0.000000 0.562993 0.000000
0.000000 0.573264 0.000000
0.000000 0.583584 0.000000
0.000000 0.593970 0.000000
0.000000 0.604449 0.000000
0.000000 0.614916 0.000000
0.000000 0.624778 0.000000
0.365380 0.633689 0.000000
0.575114 0.642085 0.000000
0.749930 0.651417 0.011870
0.874128 0.667233 0.096321
0.951339 0.692966 0.158812
0.997342 0.726827 0.221274
1.000000 0.766302 0.294293
1.000000 0.807367 0.383374
1.000000 0.848260 0.483604
0.000000 0.724028 0.000000
0.000000 0.733434 0.000000
0.000000 0.742800 0.000000
0.000000 0.752146 0.000000
0.000000 0.761144 0.000000
0.000000 0.769092 0.000000
0.000000 0.776234 0.013489
0.206899 0.781907 0.054553
0.538544 0.785385 0.099703
0.732560 0.789125 0.147149
0.860813 0.794600 0.196145
0.939492 0.805597 0.248879
0.986879 0.821709 0.308604
1.000000 0.842123 0.378682
1.000000 0.865497 0.459986
1.000000 0.889405 0.552376
0.000000 0.851850 0.110849
0.000000 0.857806 0.126560
0.000000 0.863501 0.143387
0.000000 0.869003 0.161592
0.000000 0.874183 0.179044
0.000000 0.878126 0.198622
0.000000 0.880833 0.219622
0.135040 0.881974 0.241185
0.522702 0.881011 0.265850
0.726625 0.879448 0.295339
0.848362 0.880292 0.331120
0.926942 0.883414 0.374316
0.975939 0.889613 0.425087
1.000000 0.898773 0.484511
1.000000 0.910592 0.553756
1.000000 0.924519 0.634066
0.000000 0.931350 0.314676
0.000000 0.934977 0.326612
0.000000 0.938354 0.339003
0.000000 0.941359 0.352172
0.000000 0.943788 0.366605
0.000000 0.945206 0.381746
0.000000 0.945182 0.397905
0.124489 0.943451 0.415063
0.536098 0.940003 0.434335
0.729835 0.936279 0.456848
0.844969 0.934409 0.484071
0.917127 0.934519 0.516858
0.965965 0.936416 0.557076
0.996368 0.940068 0.605727
1.000000 0.945633 0.662010
1.000000 0.952830 0.721618
0.000000 0.979886 0.498927
0.000000 0.982168 0.510267
0.000000 0.984186 0.521859
0.000000 0.986109 0.533889
0.000000 0.987067 0.546716
0.000000 0.986877 0.559844
0.000000 0.985231 0.573532
0.167893 0.981831 0.588008
0.568794 0.977059 0.603812
0.740234 0.972689 0.621833
0.844880 0.969688 0.642918
0.911760 0.968351 0.667041
0.956968 0.968118 0.695476
0.987641 0.969217 0.727891
1.000000 0.971360 0.763315
1.000000 0.974744 0.799378
0.000000 1.000000 0.675504
0.000000 1.000000 0.685568
0.000000 1.000000 0.695294
0.000000 1.000000 0.705293
0.000000 1.000000 0.715522
0.000000 1.000000 0.725318
0.000000 1.000000 0.734862
0.279004 0.999586 0.744707
0.613063 0.998703 0.755123
0.756411 0.995384 0.765548
0.848859 0.992029 0.777110
0.910249 0.989900 0.790255
0.952255 0.988786 0.804720
0.980928 0.988454 0.821809
0.999366 0.988984 0.841009
1.000000 0.990238 0.862106
0.000000 1.000000 0.806708
0.000000 1.000000 0.813000
0.000000 1.000000 0.818908
0.000000 1.000000 0.824880
0.000000 1.000000 0.830887
0.000000 1.000000 0.836783
0.126291 1.000000 0.842174
0.382676 1.000000 0.847608
0.656887 1.000000 0.853241
0.781728 1.000000 0.859056
0.858838 1.000000 0.865079
0.913589 1.000000 0.871912
0.951852 0.999927 0.879467
0.978128 0.999804 0.887852
0.995470 0.999550 0.897769
1.000000 0.999752 0.909090
0.000000 1.000000 0.886925
0.048802 1.000000 0.890731
0.113134 1.000000 0.894234
0.177900 1.000000 0.897722
0.249169 1.000000 0.901215
0.323075 1.000000 0.904710
0.434728 1.000000 0.907838
0.609789 1.000000 0.910300
0.770513 1.000000 0.912887
0.850077 1.000000 0.915752
0.901485 1.000000 0.918768
0.938366 1.000000 0.922160
0.966433 1.000000 0.926057
0.985718 1.000000 0.930414
0.999083 1.000000 0.935527
1.000000 1.000000 0.941105
0.000000 0.000000 0.000000
0.000000 0.000000 0.000000
0.000000 0.000000 0.000000
0.080723 0.000000 0.000000
0.125334 0.000000 0.000000
0.168614 0.000000 0.019027
0.221443 0.000000 0.033255
0.290824 0.000000 0.042692
0.374946 0.000000 0.051312
0.482631 0.000000 0.061029
0.614839 0.000000 0.073392
0.756809 0.000000 0.088357
0.894763 0.000000 0.108128
0.992427 0.038173 0.137516
1.000000 0.265261 0.176525
1.000000 0.430577 0.228214
0.000000 0.000000 0.000000
0.000000 0.000000 0.000000
0.037466 0.000000 0.000000
0.098422 0.000000 0.000000
0.137178 0.000000 0.006085
0.182008 0.000000 0.026211
0.240233 0.000000 0.038243
0.313572 0.000000 0.046289
0.403548 0.000000 0.055367
0.519720 0.000000 0.065678
0.655935 0.000000 0.079266
0.798901 0.000000 0.094574
0.928967 0.000000 0.116885
1.000000 0.094732 0.149247
1.000000 0.324660 0.191165
1.000000 0.480267 0.248136
0.000000 0.033130 0.000000
0.000000 0.037130 0.000000
0.040770 0.042419 0.000000
0.094250 0.044291 0.000000
0.143884 0.041026 0.019337
0.194792 0.030310 0.033316
0.259680 0.013358 0.042522
0.337931 0.000000 0.050793
0.434540 0.000000 0.060096
0.558558 0.000000 0.071170
0.697317 0.000000 0.084524
0.839961 0.000000 0.101466
0.958230 0.000000 0.126601
1.000000 0.225697 0.161548
1.000000 0.386557 0.207342
1.000000 0.532538 0.270764
0.000000 0.080354 0.000000
0.000000 0.083834 0.000000
0.000000 0.088070 0.000000
0.089458 0.091477 0.000000
0.148497 0.093704 0.025308
0.208953 0.094352 0.037108
0.280030 0.091706 0.045452
0.363910 0.081479 0.054654
0.468947 0.042503 0.064357
0.598526 0.017050 0.076550
0.738781 0.013217 0.089931
0.877560 0.031563 0.109142
0.982231 0.164391 0.137314
1.000000 0.311243 0.174803
1.000000 0.449300 0.225400
1.000000 0.586206 0.296334
0.000000 0.132524 0.000000
0.000000 0.136618 0.000000
0.000000 0.141471 0.000000
0.057433 0.145920 0.000000
0.144967 0.150346 0.017319
0.219908 0.153363 0.034635
0.301163 0.153447 0.046260
0.393250 0.152260 0.056532
0.506854 0.147297 0.067474
0.639454 0.137454 0.080517
0.779848 0.135627 0.095443
0.910462 0.175406 0.117373
0.996145 0.271603 0.148408
1.000000 0.388703 0.189723
1.000000 0.514319 0.246362
1.000000 0.641464 0.325514
0.000000 0.199969 0.000000
0.000000 0.205899 0.000000
0.000000 0.212091 0.000000
0.000000 0.217882 0.000000
0.109068 0.223298 0.000000
0.213969 0.227528 0.006061
0.315651 0.230596 0.037713
0.424485 0.232695 0.053683
0.548091 0.235115 0.068612
0.681145 0.240368 0.082790
0.818931 0.256436 0.100464
0.936192 0.299380 0.125533
0.999697 0.376840 0.160603
1.000000 0.475553 0.207400
1.000000 0.585756 0.271665
1.000000 0.698629 0.359515
0.000000 0.289639 0.000000
0.000000 0.296661 0.000000
0.000000 0.303672 0.000000
0.000000 0.310889 0.000000
0.000000 0.318433 0.000000
0.165864 0.325438 0.000000
0.307923 0.332395 0.011417
0.444623 0.338174 0.032073
0.585245 0.345496 0.057601
0.720854 0.358538 0.079114
0.851755 0.381221 0.103389
0.952625 0.423192 0.135232
1.000000 0.486367 0.176139
1.000000 0.568553 0.230359
1.000000 0.663104 0.303109
1.000000 0.751686 0.398624
0.000000 0.406864 0.000000
0.000000 0.416407 0.000000
0.000000 0.426021 0.000000
0.000000 0.435776 0.000000
0.000000 0.446056 0.000000
0.000000 0.456489 0.000000
0.245514 0.466523 0.000000
0.433163 0.475631 0.000000
0.599444 0.484501 0.034137
0.750881 0.496395 0.073659
0.874126 0.517476 0.112294
0.959099 0.553254 0.152566
0.999922 0.604858 0.200844
1.000000 0.670031 0.263351
1.000000 0.739126 0.345859
1.000000 0.801931 0.444502
0.000000 0.558386 0.000000
0.000000 0.568685 0.000000
0.000000 0.579059 0.000000
0.000000 0.589495 0.000000
0.000000 0.599984 0.000000
0.000000 0.610462 0.000000
0.000000 0.620379 0.000000
0.377587 0.629268 0.000000
0.583134 0.637690 0.037561
0.755837 0.647233 0.097039
0.877876 0.663664 0.142486
0.953633 0.690266 0.189717
0.997775 0.724943 0.246004
1.000000 0.765339 0.316681
1.000000 0.807025 0.402378
1.000000 0.848387 0.499059
0.000000 0.719435 0.000000
0.000000 0.729107 0.000000
0.000000 0.738513 0.000000
0.000000 0.747883 0.000000
0.000000 0.757172 0.000000
0.000000 0.765220 0.019550
0.000000 0.772308 0.061667
0.239859 0.778245 0.101133
0.547942 0.781807 0.140140
0.738975 0.785616 0.176894
0.864674 0.791700 0.219944
0.941922 0.803283 0.268947
0.988342 0.819965 0.327435
1.000000 0.840893 0.395840
1.000000 0.864831 0.474639
1.000000 0.889190 0.564855
0.000000 0.848814 0.114611
0.000000 0.855090 0.134684
0.000000 0.860763 0.156697
0.000000 0.866286 0.176141
0.000000 0.871458 0.194302
0.000000 0.875627 0.214057
0.000000 0.878308 0.234753
0.133137 0.879411 0.255626
0.531606 0.878654 0.279912
0.732357 0.877118 0.309009
0.851873 0.878330 0.344031
0.929242 0.881604 0.386575
0.977410 0.888184 0.437046
1.000000 0.897683 0.495960
1.000000 0.909815 0.564194
1.000000 0.924058 0.643092
0.000000 0.929512 0.314012
0.000000 0.933358 0.327896
0.000000 0.936741 0.342004
0.000000 0.939687 0.356625
0.000000 0.942132 0.371466
0.000000 0.943628 0.387042
0.000000 0.943562 0.403405
0.148954 0.941787 0.420642
0.547339 0.938316 0.440009
0.734451 0.934747 0.462822
0.848165 0.932931 0.489962
0.919215 0.933255 0.523207
0.967403 0.935247 0.563830
0.996810 0.939130 0.612359
1.000000 0.944926 0.667833
1.000000 0.952348 0.726503
0.000000 0.978742 0.496698
0.000000 0.981086 0.509167
0.000000 0.983186 0.521532
0.000000 0.985119 0.534225
0.000000 0.986010 0.547311
0.000000 0.985801 0.560823
0.000000 0.984146 0.574484
0.189917 0.980707 0.589143
0.575579 0.975910 0.605126
0.744729 0.971649 0.623342
0.847555 0.968703 0.644702
0.913661 0.967409 0.669200
0.958323 0.967309 0.698169
0.988618 0.968469 0.730385
1.000000 0.970761 0.765539
1.000000 0.974301 0.801338
0.000000 1.000000 0.672510
0.000000 1.000000 0.683251
0.000000 1.000000 0.693446
0.000000 1.000000 0.703660
0.000000 1.000000 0.714039
0.000000 1.000000 0.724019
0.000000 1.000000 0.733703
0.285690 0.999529 0.743631
0.616541 0.998137 0.754256
0.759619 0.994682 0.764809
0.851324 0.991392 0.776650
0.911935 0.989295 0.790075
0.953526 0.988268 0.804806
0.981899 0.987968 0.822079
0.999932 0.988583 0.841446
1.000000 0.989884 0.862614
0.000000 1.000000 0.804467
0.000000 1.000000 0.811072
0.000000 1.000000 0.817164
0.000000 1.000000 0.823187
0.000000 1.000000 0.829277
0.000000 1.000000 0.835305
0.143071 1.000000 0.840769
0.401629 1.000000 0.846243
0.659193 1.000000 0.851938
0.783918 1.000000 0.857932
0.860467 1.000000 0.864127
0.915086 1.000000 0.871107
0.952904 0.999736 0.878835
0.978939 0.999775 0.887359
0.996064 0.999400 0.897441
1.000000 0.999707 0.908927
0.000000 1.000000 0.885421
0.010773 1.000000 0.889289
0.090968 1.000000 0.892952
0.158089 1.000000 0.896466
0.234227 1.000000 0.899978
0.309777 1.000000 0.903482
0.415692 1.000000 0.906836
0.586326 1.000000 0.909502
0.764254 1.000000 0.912066
0.847062 1.000000 0.914972
0.900360 1.000000 0.918067
0.938000 1.000000 0.921508
0.966473 1.000000 0.925457
0.985917 1.000000 0.929919
0.999158 1.000000 0.935111
1.000000 1.000000 0.940753
0.000000 0.000000 0.003174
0.000000 0.000000 0.020084
0.001085 0.000000 0.032635
0.071909 0.000000 0.042219
0.120542 0.000000 0.050517
0.168484 0.000000 0.058993
0.223052 0.000000 0.068105
0.293196 0.000000 0.075935
0.378624 0.000000 0.084172
0.487050 0.000000 0.094099
0.619397 0.000000 0.106510
0.761231 0.000000 0.122312
0.898190 0.000000 0.144063
0.992751 0.044384 0.173268
1.000000 0.271895 0.209902
1.000000 0.435817 0.259639
0.000000 0.000000 0.012856
0.000000 0.000000 0.026751
0.035443 0.000000 0.036719
0.087726 0.000000 0.046335
0.133932 0.000000 0.054212
0.182575 0.000000 0.063140
0.242231 0.000000 0.071648
0.316484 0.000000 0.079519
0.407093 0.000000 0.088288
0.524002 0.000000 0.098761
0.660380 0.000000 0.112202
0.803176 0.000000 0.129639
0.931927 0.000000 0.153428
1.000000 0.116799 0.184449
1.000000 0.330034 0.224133
1.000000 0.485061 0.279302
0.000000 0.033791 0.022153
0.000000 0.037915 0.033797
0.041659 0.041659 0.041658
0.096256 0.042224 0.050278
0.143942 0.040488 0.059204
0.195248 0.032727 0.068548
0.261185 0.013681 0.076583
0.340073 0.000000 0.084324
0.437503 0.000000 0.093526
0.562465 0.000000 0.104634
0.701454 0.000000 0.118805
0.844005 0.000000 0.137902
0.960922 0.000000 0.163849
1.000000 0.232367 0.196420
1.000000 0.391316 0.239733
1.000000 0.536948 0.301267
0.000000 0.079748 0.030671
0.000000 0.083124 0.039255
0.015035 0.086529 0.047111
0.089354 0.089764 0.055004
0.148733 0.092605 0.064584
0.208676 0.093828 0.073255
0.279987 0.091376 0.081057
0.364873 0.080757 0.089138
0.471251 0.027197 0.098782
0.601953 0.019777 0.110673
0.742630 0.017012 0.126094
0.881230 0.016488 0.146964
0.984576 0.166193 0.174294
1.000000 0.315449 0.209354
1.000000 0.453467 0.257568
1.000000 0.590248 0.326259
0.000000 0.131429 0.030658
0.000000 0.135490 0.040165
0.000000 0.140235 0.049680
0.066522 0.144526 0.059090
0.146254 0.148673 0.069035
0.221393 0.152176 0.077090
0.301603 0.152674 0.084848
0.393541 0.151612 0.093676
0.508585 0.146141 0.103906
0.642348 0.135847 0.117017
0.783366 0.133589 0.134039
0.913565 0.175110 0.156676
0.997904 0.273863 0.185385
1.000000 0.391503 0.223738
1.000000 0.517675 0.278256
1.000000 0.644957 0.354837
0.000000 0.198088 0.013434
0.000000 0.204023 0.032132
0.000000 0.210206 0.046779
0.000000 0.216008 0.058744
0.114022 0.221362 0.068672
0.217210 0.225551 0.077367
0.318807 0.228606 0.086912
0.426168 0.230892 0.097202
0.549546 0.233400 0.108853
0.683511 0.238875 0.123510
0.822072 0.254871 0.142465
0.938770 0.299007 0.166046
0.999695 0.377687 0.197770
1.000000 0.477497 0.241499
1.000000 0.588187 0.303024
1.000000 0.701258 0.387050
0.000000 0.286844 0.000000
0.000000 0.294134 0.000000
0.000000 0.301151 0.018740
0.000000 0.308276 0.045691
0.000000 0.315822 0.058578
0.174127 0.322804 0.070964
0.312474 0.329552 0.083766
0.448959 0.335159 0.097071
0.588184 0.342730 0.111784
0.723277 0.356256 0.128834
0.854368 0.379346 0.150059
0.954773 0.422060 0.176828
1.000000 0.486289 0.213672
1.000000 0.569399 0.263885
1.000000 0.664803 0.333662
1.000000 0.753204 0.424118
0.000000 0.403133 0.000000
0.000000 0.412613 0.000000
0.000000 0.422252 0.000000
0.000000 0.432046 0.000000
0.000000 0.442195 0.018365
0.015738 0.452650 0.043517
0.257651 0.462624 0.066978
0.440566 0.471770 0.088716
0.605365 0.480701 0.110539
0.755013 0.493006 0.134199
0.876717 0.514757 0.160851
0.961102 0.551238 0.193644
0.999973 0.603825 0.237188
1.000000 0.669780 0.295725
1.000000 0.739570 0.373771
1.000000 0.802846 0.467295
0.000000 0.554021 0.000000
0.000000 0.564280 0.000000
0.000000 0.574679 0.000000
0.000000 0.585123 0.000000
0.000000 0.595616 0.000000
0.000000 0.606095 0.008909
0.018108 0.616035 0.059019
0.389772 0.624916 0.092403
0.591084 0.633401 0.122585
0.761590 0.643183 0.153588
0.881405 0.660230 0.186953
0.955683 0.687704 0.227248
0.998139 0.723181 0.278825
1.000000 0.764484 0.345438
1.000000 0.806727 0.426317
1.000000 0.848541 0.519161
0.000000 0.714906 0.000000
0.000000 0.724852 0.000000
0.000000 0.734290 0.000000
0.000000 0.743662 0.019598
0.000000 0.752968 0.058464
0.000000 0.761364 0.095394
0.000000 0.768418 0.124712
0.274543 0.774375 0.152352
0.556925 0.778275 0.181430
0.745157 0.782174 0.213935
0.868335 0.788866 0.251973
0.944154 0.801030 0.297864
0.989613 0.818279 0.352929
1.000000 0.839710 0.417759
1.000000 0.864209 0.493919
1.000000 0.888949 0.581247
0.000000 0.845818 0.141352
0.000000 0.852349 0.162174
0.000000 0.858044 0.180338
0.000000 0.863584 0.197496
0.000000 0.868737 0.215746
0.000000 0.873139 0.234080
0.000000 0.875778 0.254161
0.152884 0.876821 0.276259
0.541350 0.876286 0.301239
0.737580 0.874804 0.330016
0.855387 0.876233 0.363862
0.931363 0.879813 0.405170
0.978739 0.886772 0.454132
1.000000 0.896615 0.511406
1.000000 0.909045 0.578382
1.000000 0.923620 0.655352
0.000000 0.927684 0.321554
0.000000 0.931557 0.335979
0.000000 0.935137 0.350085
0.000000 0.938011 0.364738
0.000000 0.940478 0.379862
0.000000 0.941961 0.395601
0.000000 0.941941 0.412360
0.177155 0.940119 0.430512
0.558210 0.936589 0.450665
0.739118 0.933205 0.473446
0.851042 0.931460 0.500704
0.921189 0.931985 0.533718
0.968706 0.934078 0.574074
0.997529 0.938190 0.622168
1.000000 0.944219 0.676773
1.000000 0.951845 0.734228
0.000000 0.977605 0.498762
0.000000 0.979953 0.511236
0.000000 0.982194 0.523766
0.000000 0.984134 0.536629
0.000000 0.984891 0.549935
0.000000 0.984702 0.563530
0.000000 0.983053 0.577822
0.208337 0.979572 0.593133
0.581925 0.974754 0.609418
0.749370 0.970576 0.627838
0.850153 0.967710 0.649158
0.915416 0.966466 0.673768
0.959580 0.966499 0.702421
0.989465 0.967723 0.734722
1.000000 0.970163 0.769361
1.000000 0.973853 0.804645
0.000000 1.000000 0.671631
0.000000 1.000000 0.682407
0.000000 1.000000 0.692752
0.000000 1.000000 0.703114
0.000000 1.000000 0.713584
0.000000 1.000000 0.723721
0.000000 1.000000 0.733767
0.294466 0.999473 0.744012
0.620007 0.997547 0.754639
0.762999 0.993941 0.765347
0.853800 0.990746 0.777401
0.913595 0.988687 0.790834
0.954687 0.987694 0.805753
0.982748 0.987478 0.823209
0.999994 0.988163 0.842737
1.000000 0.989525 0.863855
0.000000 1.000000 0.802879
0.000000 1.000000 0.809536
0.000000 1.000000 0.815776
0.000000 1.000000 0.821889
0.000000 1.000000 0.828008
0.000000 1.000000 0.834192
0.153740 1.000000 0.839826
0.425370 1.000000 0.845404
0.661799 1.000000 0.851178
0.785858 1.000000 0.857296
0.862136 1.000000 0.863615
0.916604 1.000000 0.870688
0.953951 0.999543 0.878574
0.979700 0.999717 0.887271
0.996639 0.999251 0.897498
1.000000 0.999672 0.909149
0.000000 1.000000 0.884132
0.000000 1.000000 0.888014
0.064036 1.000000 0.891793
0.137185 1.000000 0.895347
0.214106 1.000000 0.898881
0.294978 1.000000 0.902434
0.398379 1.000000 0.905906
0.562389 1.000000 0.908898
0.758013 1.000000 0.911449
0.842183 1.000000 0.914380
0.899260 1.000000 0.917536
0.937653 1.000000 0.921020
0.966518 1.000000 0.925043
0.986117 1.000000 0.929615
0.999219 1.000000 0.934898
1.000000 1.000000 0.940599
0.000000 0.000000 0.054663
0.000000 0.000000 0.063012
0.002173 0.000000 0.069577
0.069785 0.000000 0.076681
0.114740 0.000000 0.084626
0.167838 0.000000 0.093176
0.226434 0.000000 0.102462
0.296504 0.000000 0.112058
0.382125 0.000000 0.122378
0.492339 0.000000 0.132810
0.624953 0.000000 0.146335
0.766073 0.000000 0.163370
0.901754 0.000000 0.185155
0.993057 0.050713 0.213647
1.000000 0.279131 0.250269
1.000000 0.441294 0.300193
0.000000 0.000000 0.058425
0.000000 0.000000 0.065971
0.035268 0.000000 0.072822
0.083278 0.000000 0.080326
0.129469 0.000000 0.088585
0.183619 0.000000 0.097310
0.245992 0.000000 0.107120
0.319669 0.000000 0.116680
0.411131 0.000000 0.126882
0.530046 0.000000 0.138111
0.665670 0.000000 0.152759
0.807804 0.000000 0.171071
0.934919 0.000000 0.194600
1.000000 0.139942 0.225124
1.000000 0.335824 0.265118
1.000000 0.490008 0.320239
0.000000 0.035682 0.063314
0.000000 0.039172 0.069925
0.039871 0.042828 0.076540
0.089405 0.044158 0.084233
0.141720 0.041759 0.093141
0.196671 0.032348 0.102599
0.263469 0.000000 0.112749
0.343475 0.000000 0.122540
0.442650 0.000000 0.132380
0.567521 0.000000 0.144533
0.706130 0.000000 0.160097
0.847922 0.000000 0.179527
0.963292 0.016481 0.205004
1.000000 0.240418 0.237885
1.000000 0.396542 0.281459
1.000000 0.541667 0.342860
0.000000 0.079380 0.067691
0.000000 0.082764 0.074303
0.009613 0.085234 0.080462
0.087708 0.087708 0.087707
0.146341 0.090485 0.097005
0.207033 0.092560 0.107701
0.280453 0.090767 0.118315
0.367100 0.079700 0.128329
0.474615 0.032578 0.138520
0.605904 0.023866 0.151681
0.746708 0.001251 0.168192
0.884786 0.000000 0.189038
0.985722 0.169428 0.216089
1.000000 0.319731 0.251553
1.000000 0.458076 0.300057
1.000000 0.594542 0.367826
0.000000 0.130654 0.071653
0.000000 0.134711 0.078892
0.000000 0.138466 0.086286
0.063673 0.141649 0.094017
0.145333 0.145510 0.103025
0.220251 0.150255 0.114011
0.300109 0.152285 0.124474
0.393510 0.151399 0.134129
0.510270 0.145637 0.145114
0.645282 0.134566 0.159258
0.786904 0.131537 0.176775
0.916661 0.175355 0.199066
0.999889 0.276797 0.228164
1.000000 0.394763 0.266822
1.000000 0.521199 0.321172
1.000000 0.648741 0.394883
0.000000 0.196460 0.073460
0.000000 0.202270 0.081625
0.000000 0.207848 0.090208
0.000000 0.213515 0.099178
0.115424 0.218913 0.108566
0.219233 0.223363 0.118868
0.320689 0.226895 0.129899
0.426354 0.229702 0.140139
0.550096 0.232341 0.152496
0.685397 0.238021 0.167552
0.825065 0.253734 0.186025
0.941238 0.299077 0.209783
0.999811 0.378951 0.241635
1.000000 0.479726 0.285340
1.000000 0.590898 0.346022
1.000000 0.703627 0.425123
0.000000 0.284218 0.068016
0.000000 0.291685 0.078060
0.000000 0.298682 0.088466
0.000000 0.305730 0.098863
0.000000 0.313311 0.109936
0.178827 0.320285 0.121918
0.316440 0.327019 0.133465
0.452626 0.332571 0.145691
0.589977 0.340449 0.159610
0.724840 0.354371 0.175722
0.856667 0.377852 0.195606
0.956718 0.421281 0.222218
1.000000 0.486507 0.258561
1.000000 0.570589 0.308407
1.000000 0.666727 0.375653
1.000000 0.754816 0.459613
0.000000 0.399623 0.036408
0.000000 0.408961 0.059168
0.000000 0.418620 0.075950
0.000000 0.428446 0.090041
0.000000 0.438547 0.105009
0.017634 0.449037 0.120358
0.265099 0.458910 0.133602
