core/schema/project/pipeline/color/luts/project_lut_default.cube
TITLE "Generated by Foundry::LUT"
LUT_3D_SIZE 6
0.000000 0.000000 0.000000
0.078155 0.000000 0.000000
0.219209 0.000000 0.000000
0.479116 0.000000 0.017902
0.891373 0.000000 0.075150
1.000000 0.425578 0.204892
0.000000 0.081640 0.000000
0.087426 0.092641 0.000000
0.279274 0.092542 0.000000
0.595208 0.017926 0.031031
0.979837 0.162328 0.105821
1.000000 0.582343 0.273157
0.000000 0.292577 0.000000
0.000000 0.313787 0.000000
0.302048 0.335325 0.000000
0.717868 0.361190 0.000000
1.000000 0.486763 0.145666
1.000000 0.750257 0.377951
0.000000 0.724028 0.000000
0.000000 0.752146 0.000000
0.000000 0.776234 0.013489
0.732560 0.789125 0.147149
0.986879 0.821709 0.308604
1.000000 0.889405 0.552376
0.000000 0.979886 0.498927
0.000000 0.986109 0.533889
0.000000 0.985231 0.573532
0.740234 0.972689 0.621833
0.956968 0.968118 0.695476
1.000000 0.974744 0.799378
0.000000 1.000000 0.886925
0.177900 1.000000 0.897722
0.434728 1.000000 0.907838
0.850077 1.000000 0.915752
0.966433 1.000000 0.926057
1.000000 1.000000 0.941105
0.000000 0.000000 0.054663
0.069785 0.000000 0.076681
0.226434 0.000000 0.102462
0.492339 0.000000 0.132810
0.901754 0.000000 0.185155
1.000000 0.441294 0.300193
0.000000 0.079380 0.067691
0.087708 0.087708 0.087707
0.280453 0.090767 0.118315
0.605904 0.023866 0.151681
0.985722 0.169428 0.216089
1.000000 0.594542 0.367826
0.000000 0.284218 0.068016
0.000000 0.305730 0.098863
0.316440 0.327019 0.133465
0.724840 0.354371 0.175722
1.000000 0.486507 0.258561
1.000000 0.754816 0.459613
0.000000 0.710432 0.013444
0.000000 0.739502 0.114241
0.000000 0.764578 0.178572
0.751276 0.778791 0.255476
0.990573 0.816662 0.388390
1.000000 0.888730 0.605221
0.000000 0.976422 0.502964
0.000000 0.983022 0.542758
0.000000 0.981934 0.584732
0.754029 0.969415 0.636195
0.960670 0.965675 0.710807
1.000000 0.973401 0.810393
0.000000 1.000000 0.883067
0.112976 1.000000 0.894493
0.380348 1.000000 0.905186
0.837476 1.000000 0.914104
0.966557 1.000000 0.924994
1.000000 1.000000 0.940739
0.000000 0.000000 0.182613
0.015685 0.004143 0.221985
0.223696 0.000000 0.265967
0.532751 0.000000 0.318990
0.913526 0.000000 0.395530
1.000000 0.460599 0.513810
0.000000 0.080941 0.201626
0.057991 0.092064 0.242788
0.290408 0.087634 0.291266
0.636627 0.003242 0.350084
0.989581 0.194146 0.437599
1.000000 0.609536 0.569296
0.000000 0.277432 0.222358
0.000000 0.299723 0.267818
0.322001 0.322001 0.321998
0.725797 0.353630 0.390129
1.000000 0.491314 0.486473
1.000000 0.761425 0.635548
0.000000 0.697650 0.260192
0.000000 0.727652 0.318331
0.000000 0.753736 0.384650
0.764378 0.769322 0.463520
0.989128 0.812575 0.571333
1.000000 0.888355 0.727584
0.000000 0.972936 0.551384
0.000000 0.979371 0.599473
0.000000 0.978276 0.649687
0.761402 0.965904 0.704688
0.962381 0.963041 0.769243
1.000000 0.972053 0.845812
0.000000 1.000000 0.882986
0.035137 1.000000 0.895189
0.327690 1.000000 0.906671
0.823121 1.000000 0.917219
0.966531 1.000000 0.928717
1.000000 1.000000 0.944428
0.000000 0.016859 0.427434
0.000000 0.029594 0.503230
0.148985 0.020078 0.582182
0.529592 0.000000 0.661359
0.947352 0.003197 0.740689
1.000000 0.493384 0.809642
0.000000 0.089133 0.462402
0.000000 0.105269 0.539854
0.240713 0.115269 0.619344
0.655712 0.048006 0.698232
0.998954 0.227030 0.773314
1.000000 0.633192 0.832789
0.000000 0.277541 0.499551
0.000000 0.303349 0.577344
0.276856 0.331531 0.656602
0.760975 0.358380 0.733299
1.000000 0.504777 0.800057
1.000000 0.771829 0.853755
0.000000 0.688036 0.545147
0.000000 0.718980 0.620124
0.000000 0.746242 0.696056
0.764415 0.764414 0.764412
0.980018 0.811385 0.822532
1.000000 0.889524 0.876369
0.000000 0.968781 0.695982
0.000000 0.975646 0.748122
0.000000 0.974422 0.793878
0.764104 0.962310 0.833731
0.960801 0.960344 0.872373
1.000000 0.970863 0.910657
0.000000 1.000000 0.895032
0.000000 1.000000 0.908844
0.234437 1.000000 0.921590
0.824114 1.000000 0.933143
0.965872 1.000000 0.944924
1.000000 1.000000 0.958862
0.000000 0.090330 0.795844
0.000000 0.124343 0.853499
0.000000 0.164378 0.898040
0.488035 0.186622 0.929201
0.929656 0.259798 0.948755
1.000000 0.563413 0.961231
0.000000 0.144948 0.823928
0.000000 0.180697 0.874827
0.029250 0.220169 0.913964
0.626022 0.251593 0.939500
0.990135 0.382162 0.956193
1.000000 0.678749 0.964845
0.000000 0.312479 0.845293
0.000000 0.351231 0.890037
0.126189 0.395823 0.923326
0.736015 0.443143 0.944851
0.999073 0.573826 0.959331
1.000000 0.792715 0.966928
0.000000 0.691424 0.853287
0.000000 0.726138 0.891242
0.000000 0.756097 0.919387
0.752076 0.776443 0.939993
0.985407 0.819441 0.956081
1.000000 0.894169 0.968686
0.000000 0.965055 0.873839
0.000000 0.972454 0.901983
0.000000 0.971489 0.924908
0.765007 0.959846 0.943121
0.958875 0.958874 0.958874
1.000000 0.970558 0.972931
0.007303 1.000000 0.931943
0.092694 1.000000 0.945140
0.386787 1.000000 0.956792
0.825122 1.000000 0.966536
0.964951 1.000000 0.975786
1.000000 1.000000 0.984509
0.000000 0.284121 0.976750
0.000000 0.346005 0.993226
0.000000 0.418378 1.000000
0.310746 0.497258 1.000000
0.874349 0.588366 1.000000
1.000000 0.742904 1.000000
0.000000 0.328705 0.984537
0.000000 0.395990 0.997194
0.002120 0.471932 1.000000
0.492591 0.550886 1.000000
0.936819 0.647487 1.000000
1.000000 0.797502 1.000000
0.000000 0.456521 0.987526
0.000000 0.519820 0.998432
0.035311 0.588068 1.000000
0.658108 0.650811 1.000000
0.966045 0.745760 1.000000
1.000000 0.853259 1.000000
0.000000 0.739957 0.979634
0.000000 0.779966 0.991074
0.016670 0.810811 0.998317
0.710452 0.829644 0.999961
0.967348 0.861901 1.000000
1.000000 0.914443 1.000000
0.000000 0.964829 0.971910
0.000000 0.971467 0.983177
0.000000 0.972521 0.991362
0.768419 0.961821 0.996591
0.956580 0.961893 0.999979
1.000000 0.974092 1.000000
0.000000 1.000000 0.978828
0.113602 1.000000 0.986804
0.371178 1.000000 0.993097
0.821555 1.000000 0.997289
0.968521 1.000000 0.999993
1.000000 1.000000 1.000000
