core/schema/project/editorial/luts/project_default_alexaLog_to_rec709.cube
TITLE "Generated by Foundry::LUT"
LUT_3D_SIZE 16
0.000000 0.000000 0.000000
0.000000 0.000000 0.000000
0.033974 0.000000 0.000000
0.100514 0.000000 0.000000
0.186641 0.000000 0.000000
0.293169 0.000000 0.000000
0.429520 0.000000 0.000000
0.606840 0.000000 0.000000
0.839280 0.000000 0.000000
1.125000 0.000000 0.000000
1.125000 0.000000 0.000000
1.125000 0.000000 0.000000
1.125000 0.000000 0.000000
1.125000 0.000000 0.000000
1.125000 0.000000 0.000000
1.125000 0.000000 0.000000
0.000000 0.000000 0.000000
0.000000 0.000000 0.000000
0.033974 0.000000 0.000000
0.100514 0.000000 0.000000
0.186641 0.000000 0.000000
0.293169 0.000000 0.000000
0.429520 0.000000 0.000000
0.606840 0.000000 0.000000
0.839280 0.000000 0.000000
1.125000 0.000000 0.000000
1.125000 0.000000 0.000000
1.125000 0.000000 0.000000
1.125000 0.000000 0.000000
1.125000 0.000000 0.000000
1.125000 0.000000 0.000000
1.125000 0.000000 0.000000
0.000000 0.033974 0.000000
0.000000 0.033974 0.000000
0.033974 0.033974 0.000000
0.100514 0.033974 0.000000
0.186641 0.033974 0.000000
0.293169 0.033974 0.000000
0.429520 0.033974 0.000000
0.606840 0.033974 0.000000
0.839280 0.033974 0.000000
1.125000 0.033974 0.000000
1.125000 0.033974 0.000000
1.125000 0.033974 0.000000
1.125000 0.033974 0.000000
1.125000 0.033974 0.000000
1.125000 0.033974 0.000000
1.125000 0.033974 0.000000
0.000000 0.100514 0.000000
0.000000 0.100514 0.000000
0.033974 0.100514 0.000000
0.100514 0.100514 0.000000
0.186641 0.100514 0.000000
0.293169 0.100514 0.000000
0.429520 0.100514 0.000000
0.606840 0.100514 0.000000
0.839280 0.100514 0.000000
1.125000 0.100514 0.000000
1.125000 0.100514 0.000000
1.125000 0.100514 0.000000
1.125000 0.100514 0.000000
1.125000 0.100514 0.000000
1.125000 0.100514 0.000000
1.125000 0.100514 0.000000
0.000000 0.186641 0.000000
0.000000 0.186641 0.000000
0.033974 0.186641 0.000000
0.100514 0.186641 0.000000
0.186641 0.186641 0.000000
0.293169 0.186641 0.000000
0.429520 0.186641 0.000000
0.606840 0.186641 0.000000
0.839280 0.186641 0.000000
1.125000 0.186641 0.000000
1.125000 0.186641 0.000000
1.125000 0.186641 0.000000
1.125000 0.186641 0.000000
1.125000 0.186641 0.000000
1.125000 0.186641 0.000000
1.125000 0.186641 0.000000
0.000000 0.293169 0.000000
0.000000 0.293169 0.000000
0.033974 0.293169 0.000000
0.100514 0.293169 0.000000
0.186641 0.293169 0.000000
0.293169 0.293169 0.000000
0.429520 0.293169 0.000000
0.606840 0.293169 0.000000
0.839280 0.293169 0.000000
1.125000 0.293169 0.000000
1.125000 0.293169 0.000000
1.125000 0.293169 0.000000
1.125000 0.293169 0.000000
1.125000 0.293169 0.000000
1.125000 0.293169 0.000000
1.125000 0.293169 0.000000
0.000000 0.429520 0.000000
0.000000 0.429520 0.000000
0.033974 0.429520 0.000000
0.100514 0.429520 0.000000
0.186641 0.429520 0.000000
0.293169 0.429520 0.000000
0.429520 0.429520 0.000000
0.606840 0.429520 0.000000
0.839280 0.429520 0.000000
1.125000 0.429520 0.000000
1.125000 0.429520 0.000000
1.125000 0.429520 0.000000
1.125000 0.429520 0.000000
1.125000 0.429520 0.000000
1.125000 0.429520 0.000000
1.125000 0.429520 0.000000
0.000000 0.606840 0.000000
0.000000 0.606840 0.000000
0.033974 0.606840 0.000000
0.100514 0.606840 0.000000
0.186641 0.606840 0.000000
0.293169 0.606840 0.000000
0.429520 0.606840 0.000000
0.606840 0.606840 0.000000
0.839280 0.606840 0.000000
1.125000 0.606840 0.000000
1.125000 0.606840 0.000000
1.125000 0.606840 0.000000
1.125000 0.606840 0.000000
1.125000 0.606840 0.000000
1.125000 0.606840 0.000000
1.125000 0.606840 0.000000
0.000000 0.839280 0.000000
0.000000 0.839280 0.000000
0.033974 0.839280 0.000000
0.100514 0.839280 0.000000
0.186641 0.839280 0.000000
0.293169 0.839280 0.000000
0.429520 0.839280 0.000000
0.606840 0.839280 0.000000
0.839280 0.839280 0.000000
1.125000 0.839280 0.000000
1.125000 0.839280 0.000000
1.125000 0.839280 0.000000
1.125000 0.839280 0.000000
1.125000 0.839280 0.000000
1.125000 0.839280 0.000000
1.125000 0.839280 0.000000
0.000000 1.125000 0.000000
0.000000 1.125000 0.000000
0.033974 1.125000 0.000000
0.100514 1.125000 0.000000
0.186641 1.125000 0.000000
0.293169 1.125000 0.000000
0.429520 1.125000 0.000000
0.606840 1.125000 0.000000
0.839280 1.125000 0.000000
1.125000 1.125000 0.000000
1.125000 1.125000 0.000000
1.125000 1.125000 0.000000
1.125000 1.125000 0.000000
1.125000 1.125000 0.000000
1.125000 1.125000 0.000000
1.125000 1.125000 0.000000
0.000000 1.125000 0.000000
0.000000 1.125000 0.000000
0.033974 1.125000 0.000000
0.100514 1.125000 0.000000
0.186641 1.125000 0.000000
0.293169 1.125000 0.000000
0.429520 1.125000 0.000000
0.606840 1.125000 0.000000
0.839280 1.125000 0.000000
1.125000 1.125000 0.000000
1.125000 1.125000 0.000000
1.125000 1.125000 0.000000
1.125000 1.125000 0.000000
1.125000 1.125000 0.000000
1.125000 1.125000 0.000000
1.125000 1.125000 0.000000
0.000000 1.125000 0.000000
0.000000 1.125000 0.000000
0.033974 1.125000 0.000000
0.100514 1.125000 0.000000
0.186641 1.125000 0.000000
0.293169 1.125000 0.000000
0.429520 1.125000 0.000000
0.606840 1.125000 0.000000
0.839280 1.125000 0.000000
1.125000 1.125000 0.000000
1.125000 1.125000 0.000000
1.125000 1.125000 0.000000
1.125000 1.125000 0.000000
1.125000 1.125000 0.000000
1.125000 1.125000 0.000000
1.125000 1.125000 0.000000
0.000000 1.125000 0.000000
0.000000 1.125000 0.000000
0.033974 1.125000 0.000000
0.100514 1.125000 0.000000
0.186641 1.125000 0.000000
0.293169 1.125000 0.000000
0.429520 1.125000 0.000000
0.606840 1.125000 0.000000
0.839280 1.125000 0.000000
1.125000 1.125000 0.000000
1.125000 1.125000 0.000000
1.125000 1.125000 0.000000
1.125000 1.125000 0.000000
1.125000 1.125000 0.000000
1.125000 1.125000 0.000000
1.125000 1.125000 0.000000
0.000000 1.125000 0.000000
0.000000 1.125000 0.000000
0.033974 1.125000 0.000000
0.100514 1.125000 0.000000
0.186641 1.125000 0.000000
0.293169 1.125000 0.000000
0.429520 1.125000 0.000000
0.606840 1.125000 0.000000
0.839280 1.125000 0.000000
1.125000 1.125000 0.000000
1.125000 1.125000 0.000000
1.125000 1.125000 0.000000
1.125000 1.125000 0.000000
1.125000 1.125000 0.000000
1.125000 1.125000 0.000000
1.125000 1.125000 0.000000
0.000000 1.125000 0.000000
0.000000 1.125000 0.000000
0.033974 1.125000 0.000000
0.100514 1.125000 0.000000
0.186641 1.125000 0.000000
0.293169 1.125000 0.000000
0.429520 1.125000 0.000000
0.606840 1.125000 0.000000
0.839280 1.125000 0.000000
1.125000 1.125000 0.000000
1.125000 1.125000 0.000000
1.125000 1.125000 0.000000
1.125000 1.125000 0.000000
1.125000 1.125000 0.000000
1.125000 1.125000 0.000000
1.125000 1.125000 0.000000
0.000000 1.125000 0.000000
0.000000 1.125000 0.000000
0.033974 1.125000 0.000000
0.100514 1.125000 0.000000
0.186641 1.125000 0.000000
0.293169 1.125000 0.000000
0.429520 1.125000 0.000000
0.606840 1.125000 0.000000
0.839280 1.125000 0.000000
1.125000 1.125000 0.000000
1.125000 1.125000 0.000000
1.125000 1.125000 0.000000
1.125000 1.125000 0.000000
1.125000 1.125000 0.000000
1.125000 1.125000 0.000000
1.125000 1.125000 0.000000
0.000000 0.000000 0.000000
0.000000 0.000000 0.000000
0.033974 0.000000 0.000000
0.100514 0.000000 0.000000
0.186641 0.000000 0.000000
0.293169 0.000000 0.000000
0.429520 0.000000 0.000000
0.606840 0.000000 0.000000
0.839280 0.000000 0.000000
1.125000 0.000000 0.000000
1.125000 0.000000 0.000000
1.125000 0.000000 0.000000
1.125000 0.000000 0.000000
1.125000 0.000000 0.000000
1.125000 0.000000 0.000000
1.125000 0.000000 0.000000
0.000000 0.000000 0.000000
0.000000 0.000000 0.000000
0.033974 0.000000 0.000000
0.100514 0.000000 0.000000
0.186641 0.000000 0.000000
0.293169 0.000000 0.000000
0.429520 0.000000 0.000000
0.606840 0.000000 0.000000
0.839280 0.000000 0.000000
1.125000 0.000000 0.000000
1.125000 0.000000 0.000000
1.125000 0.000000 0.000000
1.125000 0.000000 0.000000
1.125000 0.000000 0.000000
1.125000 0.000000 0.000000
1.125000 0.000000 0.000000
0.000000 0.033974 0.000000
0.000000 0.033974 0.000000
0.033974 0.033974 0.000000
0.100514 0.033974 0.000000
0.186641 0.033974 0.000000
0.293169 0.033974 0.000000
0.429520 0.033974 0.000000
0.606840 0.033974 0.000000
0.839280 0.033974 0.000000
1.125000 0.033974 0.000000
1.125000 0.033974 0.000000
1.125000 0.033974 0.000000
1.125000 0.033974 0.000000
1.125000 0.033974 0.000000
1.125000 0.033974 0.000000
1.125000 0.033974 0.000000
0.000000 0.100514 0.000000
0.000000 0.100514 0.000000
0.033974 0.100514 0.000000
0.100514 0.100514 0.000000
0.186641 0.100514 0.000000
0.293169 0.100514 0.000000
0.429520 0.100514 0.000000
0.606840 0.100514 0.000000
0.839280 0.100514 0.000000
1.125000 0.100514 0.000000
1.125000 0.100514 0.000000
1.125000 0.100514 0.000000
1.125000 0.100514 0.000000
1.125000 0.100514 0.000000
1.125000 0.100514 0.000000
1.125000 0.100514 0.000000
0.000000 0.186641 0.000000
0.000000 0.186641 0.000000
0.033974 0.186641 0.000000
0.100514 0.186641 0.000000
0.186641 0.186641 0.000000
0.293169 0.186641 0.000000
0.429520 0.186641 0.000000
0.606840 0.186641 0.000000
0.839280 0.186641 0.000000
1.125000 0.186641 0.000000
1.125000 0.186641 0.000000
1.125000 0.186641 0.000000
1.125000 0.186641 0.000000
1.125000 0.186641 0.000000
1.125000 0.186641 0.000000
1.125000 0.186641 0.000000
0.000000 0.293169 0.000000
0.000000 0.293169 0.000000
0.033974 0.293169 0.000000
0.100514 0.293169 0.000000
0.186641 0.293169 0.000000
0.293169 0.293169 0.000000
0.429520 0.293169 0.000000
0.606840 0.293169 0.000000
0.839280 0.293169 0.000000
1.125000 0.293169 0.000000
1.125000 0.293169 0.000000
1.125000 0.293169 0.000000
1.125000 0.293169 0.000000
1.125000 0.293169 0.000000
1.125000 0.293169 0.000000
1.125000 0.293169 0.000000
0.000000 0.429520 0.000000
0.000000 0.429520 0.000000
0.033974 0.429520 0.000000
0.100514 0.429520 0.000000
0.186641 0.429520 0.000000
0.293169 0.429520 0.000000
0.429520 0.429520 0.000000
0.606840 0.429520 0.000000
0.839280 0.429520 0.000000
1.125000 0.429520 0.000000
1.125000 0.429520 0.000000
1.125000 0.429520 0.000000
1.125000 0.429520 0.000000
1.125000 0.429520 0.000000
1.125000 0.429520 0.000000
1.125000 0.429520 0.000000
0.000000 0.606840 0.000000
0.000000 0.606840 0.000000
0.033974 0.606840 0.000000
0.100514 0.606840 0.000000
0.186641 0.606840 0.000000
0.293169 0.606840 0.000000
0.429520 0.606840 0.000000
0.606840 0.606840 0.000000
0.839280 0.606840 0.000000
1.125000 0.606840 0.000000
1.125000 0.606840 0.000000
1.125000 0.606840 0.000000
1.125000 0.606840 0.000000
1.125000 0.606840 0.000000
1.125000 0.606840 0.000000
1.125000 0.606840 0.000000
0.000000 0.839280 0.000000
0.000000 0.839280 0.000000
0.033974 0.839280 0.000000
0.100514 0.839280 0.000000
0.186641 0.839280 0.000000
0.293169 0.839280 0.000000
0.429520 0.839280 0.000000
0.606840 0.839280 0.000000
0.839280 0.839280 0.000000
1.125000 0.839280 0.000000
1.125000 0.839280 0.000000
1.125000 0.839280 0.000000
1.125000 0.839280 0.000000
1.125000 0.839280 0.000000
1.125000 0.839280 0.000000
1.125000 0.839280 0.000000
0.000000 1.125000 0.000000
0.000000 1.125000 0.000000
0.033974 1.125000 0.000000
0.100514 1.125000 0.000000
0.186641 1.125000 0.000000
0.293169 1.125000 0.000000
0.429520 1.125000 0.000000
0.606840 1.125000 0.000000
0.839280 1.125000 0.000000
1.125000 1.125000 0.000000
1.125000 1.125000 0.000000
1.125000 1.125000 0.000000
1.125000 1.125000 0.000000
1.125000 1.125000 0.000000
1.125000 1.125000 0.000000
1.125000 1.125000 0.000000
0.000000 1.125000 0.000000
0.000000 1.125000 0.000000
0.033974 1.125000 0.000000
0.100514 1.125000 0.000000
0.186641 1.125000 0.000000
0.293169 1.125000 0.000000
0.429520 1.125000 0.000000
0.606840 1.125000 0.000000
0.839280 1.125000 0.000000
1.125000 1.125000 0.000000
1.125000 1.125000 0.000000
1.125000 1.125000 0.000000
1.125000 1.125000 0.000000
1.125000 1.125000 0.000000
1.125000 1.125000 0.000000
1.125000 1.125000 0.000000
0.000000 1.125000 0.000000
0.000000 1.125000 0.000000
0.033974 1.125000 0.000000
0.100514 1.125000 0.000000
0.186641 1.125000 0.000000
0.293169 1.125000 0.000000
0.429520 1.125000 0.000000
0.606840 1.125000 0.000000
0.839280 1.125000 0.000000
1.125000 1.125000 0.000000
1.125000 1.125000 0.000000
1.125000 1.125000 0.000000
1.125000 1.125000 0.000000
1.125000 1.125000 0.000000
1.125000 1.125000 0.000000
1.125000 1.125000 0.000000
0.000000 1.125000 0.000000
0.000000 1.125000 0.000000
0.033974 1.125000 0.000000
0.100514 1.125000 0.000000
0.186641 1.125000 0.000000
0.293169 1.125000 0.000000
0.429520 1.125000 0.000000
0.606840 1.125000 0.000000
0.839280 1.125000 0.000000
1.125000 1.125000 0.000000
1.125000 1.125000 0.000000
1.125000 1.125000 0.000000
1.125000 1.125000 0.000000
1.125000 1.125000 0.000000
1.125000 1.125000 0.000000
1.125000 1.125000 0.000000
0.000000 1.125000 0.000000
0.000000 1.125000 0.000000
0.033974 1.125000 0.000000
0.100514 1.125000 0.000000
0.186641 1.125000 0.000000
0.293169 1.125000 0.000000
0.429520 1.125000 0.000000
0.606840 1.125000 0.000000
0.839280 1.125000 0.000000
1.125000 1.125000 0.000000
1.125000 1.125000 0.000000
1.125000 1.125000 0.000000
1.125000 1.125000 0.000000
1.125000 1.125000 0.000000
1.125000 1.125000 0.000000
1.125000 1.125000 0.000000
0.000000 1.125000 0.000000
0.000000 1.125000 0.000000
0.033974 1.125000 0.000000
0.100514 1.125000 0.000000
0.186641 1.125000 0.000000
0.293169 1.125000 0.000000
0.429520 1.125000 0.000000
0.606840 1.125000 0.000000
0.839280 1.125000 0.000000
1.125000 1.125000 0.000000
1.125000 1.125000 0.000000
1.125000 1.125000 0.000000
1.125000 1.125000 0.000000
1.125000 1.125000 0.000000
1.125000 1.125000 0.000000
1.125000 1.125000 0.000000
0.000000 1.125000 0.000000
0.000000 1.125000 0.000000
0.033974 1.125000 0.000000
0.100514 1.125000 0.000000
0.186641 1.125000 0.000000
0.293169 1.125000 0.000000
0.429520 1.125000 0.000000
0.606840 1.125000 0.000000
0.839280 1.125000 0.000000
1.125000 1.125000 0.000000
1.125000 1.125000 0.000000
1.125000 1.125000 0.000000
1.125000 1.125000 0.000000
1.125000 1.125000 0.000000
1.125000 1.125000 0.000000
1.125000 1.125000 0.000000
0.000000 0.000000 0.033974
0.000000 0.000000 0.033974
0.033974 0.000000 0.033974
0.100514 0.000000 0.033974
0.186641 0.000000 0.033974
0.293169 0.000000 0.033974
0.429520 0.000000 0.033974
0.606840 0.000000 0.033974
0.839280 0.000000 0.033974
1.125000 0.000000 0.033974
1.125000 0.000000 0.033974
1.125000 0.000000 0.033974
1.125000 0.000000 0.033974
1.125000 0.000000 0.033974
1.125000 0.000000 0.033974
1.125000 0.000000 0.033974
0.000000 0.000000 0.033974
0.000000 0.000000 0.033974
0.033974 0.000000 0.033974
0.100514 0.000000 0.033974
0.186641 0.000000 0.033974
0.293169 0.000000 0.033974
0.429520 0.000000 0.033974
0.606840 0.000000 0.033974
0.839280 0.000000 0.033974
1.125000 0.000000 0.033974
1.125000 0.000000 0.033974
1.125000 0.000000 0.033974
1.125000 0.000000 0.033974
1.125000 0.000000 0.033974
1.125000 0.000000 0.033974
1.125000 0.000000 0.033974
0.000000 0.033974 0.033974
0.000000 0.033974 0.033974
0.033974 0.033974 0.033974
0.100514 0.033974 0.033974
0.186641 0.033974 0.033974
0.293169 0.033974 0.033974
0.429520 0.033974 0.033974
0.606840 0.033974 0.033974
0.839280 0.033974 0.033974
1.125000 0.033974 0.033974
1.125000 0.033974 0.033974
1.125000 0.033974 0.033974
1.125000 0.033974 0.033974
1.125000 0.033974 0.033974
1.125000 0.033974 0.033974
1.125000 0.033974 0.033974
0.000000 0.100514 0.033974
0.000000 0.100514 0.033974
0.033974 0.100514 0.033974
0.100514 0.100514 0.033974
0.186641 0.100514 0.033974
0.293169 0.100514 0.033974
0.429520 0.100514 0.033974
0.606840 0.100514 0.033974
0.839280 0.100514 0.033974
1.125000 0.100514 0.033974
1.125000 0.100514 0.033974
1.125000 0.100514 0.033974
1.125000 0.100514 0.033974
1.125000 0.100514 0.033974
1.125000 0.100514 0.033974
1.125000 0.100514 0.033974
0.000000 0.186641 0.033974
0.000000 0.186641 0.033974
0.033974 0.186641 0.033974
0.100514 0.186641 0.033974
0.186641 0.186641 0.033974
0.293169 0.186641 0.033974
0.429520 0.186641 0.033974
0.606840 0.186641 0.033974
0.839280 0.186641 0.033974
1.125000 0.186641 0.033974
1.125000 0.186641 0.033974
1.125000 0.186641 0.033974
1.125000 0.186641 0.033974
1.125000 0.186641 0.033974
1.125000 0.186641 0.033974
1.125000 0.186641 0.033974
0.000000 0.293169 0.033974
0.000000 0.293169 0.033974
0.033974 0.293169 0.033974
0.100514 0.293169 0.033974
0.186641 0.293169 0.033974
0.293169 0.293169 0.033974
0.429520 0.293169 0.033974
0.606840 0.293169 0.033974
0.839280 0.293169 0.033974
1.125000 0.293169 0.033974
1.125000 0.293169 0.033974
1.125000 0.293169 0.033974
1.125000 0.293169 0.033974
1.125000 0.293169 0.033974
1.125000 0.293169 0.033974
1.125000 0.293169 0.033974
0.000000 0.429520 0.033974
0.000000 0.429520 0.033974
0.033974 0.429520 0.033974
0.100514 0.429520 0.033974
0.186641 0.429520 0.033974
0.293169 0.429520 0.033974
0.429520 0.429520 0.033974
0.606840 0.429520 0.033974
0.839280 0.429520 0.033974
1.125000 0.429520 0.033974
1.125000 0.429520 0.033974
1.125000 0.429520 0.033974
1.125000 0.429520 0.033974
1.125000 0.429520 0.033974
1.125000 0.429520 0.033974
1.125000 0.429520 0.033974
0.000000 0.606840 0.033974
0.000000 0.606840 0.033974
0.033974 0.606840 0.033974
0.100514 0.606840 0.033974
0.186641 0.606840 0.033974
0.293169 0.606840 0.033974
0.429520 0.606840 0.033974
0.606840 0.606840 0.033974
0.839280 0.606840 0.033974
1.125000 0.606840 0.033974
1.125000 0.606840 0.033974
1.125000 0.606840 0.033974
1.125000 0.606840 0.033974
1.125000 0.606840 0.033974
1.125000 0.606840 0.033974
1.125000 0.606840 0.033974
0.000000 0.839280 0.033974
0.000000 0.839280 0.033974
0.033974 0.839280 0.033974
0.100514 0.839280 0.033974
0.186641 0.839280 0.033974
0.293169 0.839280 0.033974
0.429520 0.839280 0.033974
0.606840 0.839280 0.033974
0.839280 0.839280 0.033974
1.125000 0.839280 0.033974
1.125000 0.839280 0.033974
1.125000 0.839280 0.033974
1.125000 0.839280 0.033974
1.125000 0.839280 0.033974
1.125000 0.839280 0.033974
1.125000 0.839280 0.033974
0.000000 1.125000 0.033974
0.000000 1.125000 0.033974
0.033974 1.125000 0.033974
0.100514 1.125000 0.033974
0.186641 1.125000 0.033974
0.293169 1.125000 0.033974
0.429520 1.125000 0.033974
0.606840 1.125000 0.033974
0.839280 1.125000 0.033974
1.125000 1.125000 0.033974
1.125000 1.125000 0.033974
1.125000 1.125000 0.033974
1.125000 1.125000 0.033974
1.125000 1.125000 0.033974
1.125000 1.125000 0.033974
1.125000 1.125000 0.033974
0.000000 1.125000 0.033974
0.000000 1.125000 0.033974
0.033974 1.125000 0.033974
0.100514 1.125000 0.033974
0.186641 1.125000 0.033974
0.293169 1.125000 0.033974
0.429520 1.125000 0.033974
0.606840 1.125000 0.033974
0.839280 1.125000 0.033974
1.125000 1.125000 0.033974
1.125000 1.125000 0.033974
1.125000 1.125000 0.033974
1.125000 1.125000 0.033974
1.125000 1.125000 0.033974
1.125000 1.125000 0.033974
1.125000 1.125000 0.033974
0.000000 1.125000 0.033974
0.000000 1.125000 0.033974
0.033974 1.125000 0.033974
0.100514 1.125000 0.033974
0.186641 1.125000 0.033974
0.293169 1.125000 0.033974
0.429520 1.125000 0.033974
0.606840 1.125000 0.033974
0.839280 1.125000 0.033974
1.125000 1.125000 0.033974
1.125000 1.125000 0.033974
1.125000 1.125000 0.033974
1.125000 1.125000 0.033974
1.125000 1.125000 0.033974
1.125000 1.125000 0.033974
1.125000 1.125000 0.033974
0.000000 1.125000 0.033974
0.000000 1.125000 0.033974
0.033974 1.125000 0.033974
0.100514 1.125000 0.033974
0.186641 1.125000 0.033974
0.293169 1.125000 0.033974
0.429520 1.125000 0.033974
0.606840 1.125000 0.033974
0.839280 1.125000 0.033974
1.125000 1.125000 0.033974
1.125000 1.125000 0.033974
1.125000 1.125000 0.033974
1.125000 1.125000 0.033974
1.125000 1.125000 0.033974
1.125000 1.125000 0.033974
1.125000 1.125000 0.033974
0.000000 1.125000 0.033974
0.000000 1.125000 0.033974
0.033974 1.125000 0.033974
0.100514 1.125000 0.033974
0.186641 1.125000 0.033974
0.293169 1.125000 0.033974
0.429520 1.125000 0.033974
0.606840 1.125000 0.033974
0.839280 1.125000 0.033974
1.125000 1.125000 0.033974
1.125000 1.125000 0.033974
1.125000 1.125000 0.033974
1.125000 1.125000 0.033974
1.125000 1.125000 0.033974
1.125000 1.125000 0.033974
1.125000 1.125000 0.033974
0.000000 1.125000 0.033974
0.000000 1.125000 0.033974
0.033974 1.125000 0.033974
0.100514 1.125000 0.033974
0.186641 1.125000 0.033974
0.293169 1.125000 0.033974
0.429520 1.125000 0.033974
0.606840 1.125000 0.033974
0.839280 1.125000 0.033974
1.125000 1.125000 0.033974
1.125000 1.125000 0.033974
1.125000 1.125000 0.033974
1.125000 1.125000 0.033974
1.125000 1.125000 0.033974
1.125000 1.125000 0.033974
1.125000 1.125000 0.033974
0.000000 1.125000 0.033974
0.000000 1.125000 0.033974
0.033974 1.125000 0.033974
0.100514 1.125000 0.033974
0.186641 1.125000 0.033974
0.293169 1.125000 0.033974
0.429520 1.125000 0.033974
0.606840 1.125000 0.033974
0.839280 1.125000 0.033974
1.125000 1.125000 0.033974
1.125000 1.125000 0.033974
1.125000 1.125000 0.033974
1.125000 1.125000 0.033974
1.125000 1.125000 0.033974
1.125000 1.125000 0.033974
1.125000 1.125000 0.033974
0.000000 0.000000 0.100514
0.000000 0.000000 0.100514
0.033974 0.000000 0.100514
0.100514 0.000000 0.100514
0.186641 0.000000 0.100514
0.293169 0.000000 0.100514
0.429520 0.000000 0.100514
0.606840 0.000000 0.100514
0.839280 0.000000 0.100514
1.125000 0.000000 0.100514
1.125000 0.000000 0.100514
1.125000 0.000000 0.100514
1.125000 0.000000 0.100514
1.125000 0.000000 0.100514
1.125000 0.000000 0.100514
1.125000 0.000000 0.100514
0.000000 0.000000 0.100514
0.000000 0.000000 0.100514
0.033974 0.000000 0.100514
0.100514 0.000000 0.100514
0.186641 0.000000 0.100514
0.293169 0.000000 0.100514
0.429520 0.000000 0.100514
0.606840 0.000000 0.100514
0.839280 0.000000 0.100514
1.125000 0.000000 0.100514
1.125000 0.000000 0.100514
1.125000 0.000000 0.100514
1.125000 0.000000 0.100514
1.125000 0.000000 0.100514
1.125000 0.000000 0.100514
1.125000 0.000000 0.100514
0.000000 0.033974 0.100514
0.000000 0.033974 0.100514
0.033974 0.033974 0.100514
0.100514 0.033974 0.100514
0.186641 0.033974 0.100514
0.293169 0.033974 0.100514
0.429520 0.033974 0.100514
0.606840 0.033974 0.100514
0.839280 0.033974 0.100514
1.125000 0.033974 0.100514
1.125000 0.033974 0.100514
1.125000 0.033974 0.100514
1.125000 0.033974 0.100514
1.125000 0.033974 0.100514
1.125000 0.033974 0.100514
1.125000 0.033974 0.100514
0.000000 0.100514 0.100514
0.000000 0.100514 0.100514
0.033974 0.100514 0.100514
0.100514 0.100514 0.100514
0.186641 0.100514 0.100514
0.293169 0.100514 0.100514
0.429520 0.100514 0.100514
0.606840 0.100514 0.100514
0.839280 0.100514 0.100514
1.125000 0.100514 0.100514
1.125000 0.100514 0.100514
1.125000 0.100514 0.100514
1.125000 0.100514 0.100514
1.125000 0.100514 0.100514
1.125000 0.100514 0.100514
1.125000 0.100514 0.100514
0.000000 0.186641 0.100514
0.000000 0.186641 0.100514
0.033974 0.186641 0.100514
0.100514 0.186641 0.100514
0.186641 0.186641 0.100514
0.293169 0.186641 0.100514
0.429520 0.186641 0.100514
0.606840 0.186641 0.100514
0.839280 0.186641 0.100514
1.125000 0.186641 0.100514
1.125000 0.186641 0.100514
1.125000 0.186641 0.100514
1.125000 0.186641 0.100514
1.125000 0.186641 0.100514
1.125000 0.186641 0.100514
1.125000 0.186641 0.100514
0.000000 0.293169 0.100514
0.000000 0.293169 0.100514
0.033974 0.293169 0.100514
0.100514 0.293169 0.100514
0.186641 0.293169 0.100514
0.293169 0.293169 0.100514
0.429520 0.293169 0.100514
0.606840 0.293169 0.100514
0.839280 0.293169 0.100514
1.125000 0.293169 0.100514
1.125000 0.293169 0.100514
1.125000 0.293169 0.100514
1.125000 0.293169 0.100514
1.125000 0.293169 0.100514
1.125000 0.293169 0.100514
1.125000 0.293169 0.100514
0.000000 0.429520 0.100514
0.000000 0.429520 0.100514
0.033974 0.429520 0.100514
0.100514 0.429520 0.100514
0.186641 0.429520 0.100514
0.293169 0.429520 0.100514
0.429520 0.429520 0.100514
0.606840 0.429520 0.100514
0.839280 0.429520 0.100514
1.125000 0.429520 0.100514
1.125000 0.429520 0.100514
1.125000 0.429520 0.100514
1.125000 0.429520 0.100514
1.125000 0.429520 0.100514
1.125000 0.429520 0.100514
1.125000 0.429520 0.100514
0.000000 0.606840 0.100514
0.000000 0.606840 0.100514
0.033974 0.606840 0.100514
0.100514 0.606840 0.100514
0.186641 0.606840 0.100514
0.293169 0.606840 0.100514
0.429520 0.606840 0.100514
