core/schema/project/editorial/luts/project_default_alexaLog_to_rec709.cube
TITLE "Generated by Foundry::LUT"
LUT_3D_SIZE 6
0.000000 0.000000 0.000000
0.100514 0.000000 0.000000
0.429520 0.000000 0.000000
1.125000 0.000000 0.000000
1.125000 0.000000 0.000000
1.125000 0.000000 0.000000
0.000000 0.100514 0.000000
0.100514 0.100514 0.000000
0.429520 0.100514 0.000000
1.125000 0.100514 0.000000
1.125000 0.100514 0.000000
1.125000 0.100514 0.000000
0.000000 0.429520 0.000000
0.100514 0.429520 0.000000
0.429520 0.429520 0.000000
1.125000 0.429520 0.000000
1.125000 0.429520 0.000000
1.125000 0.429520 0.000000
0.000000 1.125000 0.000000
0.100514 1.125000 0.000000
0.429520 1.125000 0.000000
1.125000 1.125000 0.000000
1.125000 1.125000 0.000000
1.125000 1.125000 0.000000
0.000000 1.125000 0.000000
0.100514 1.125000 0.000000
0.429520 1.125000 0.000000
1.125000 1.125000 0.000000
1.125000 1.125000 0.000000
1.125000 1.125000 0.000000
0.000000 1.125000 0.000000
0.100514 1.125000 0.000000
0.429520 1.125000 0.000000
1.125000 1.125000 0.000000
1.125000 1.125000 0.000000
1.125000 1.125000 0.000000
0.000000 0.000000 0.100514
0.100514 0.000000 0.100514
0.429520 0.000000 0.100514
1.125000 0.000000 0.100514
1.125000 0.000000 0.100514
1.125000 0.000000 0.100514
0.000000 0.100514 0.100514
0.100514 0.100514 0.100514
0.429520 0.100514 0.100514
1.125000 0.100514 0.100514
1.125000 0.100514 0.100514
1.125000 0.100514 0.100514
0.000000 0.429520 0.100514
0.100514 0.429520 0.100514
0.429520 0.429520 0.100514
1.125000 0.429520 0.100514
1.125000 0.429520 0.100514
1.125000 0.429520 0.100514
0.000000 1.125000 0.100514
0.100514 1.125000 0.100514
0.429520 1.125000 0.100514
1.125000 1.125000 0.100514
1.125000 1.125000 0.100514
1.125000 1.125000 0.100514
0.000000 1.125000 0.100514
0.100514 1.125000 0.100514
0.429520 1.125000 0.100514
1.125000 1.125000 0.100514
1.125000 1.125000 0.100514
1.125000 1.125000 0.100514
0.000000 1.125000 0.100514
0.100514 1.125000 0.100514
0.429520 1.125000 0.100514
1.125000 1.125000 0.100514
1.125000 1.125000 0.100514
1.125000 1.125000 0.100514
0.000000 0.000000 0.429520
0.100514 0.000000 0.429520
0.429520 0.000000 0.429520
1.125000 0.000000 0.429520
1.125000 0.000000 0.429520
1.125000 0.000000 0.429520
0.000000 0.100514 0.429520
0.100514 0.100514 0.429520
0.429520 0.100514 0.429520
1.125000 0.100514 0.429520
1.125000 0.100514 0.429520
1.125000 0.100514 0.429520
0.000000 0.429520 0.429520
0.100514 0.429520 0.429520
0.429520 0.429520 0.429520
1.125000 0.429520 0.429520
1.125000 0.429520 0.429520
1.125000 0.429520 0.429520
0.000000 1.125000 0.429520
0.100514 1.125000 0.429520
0.429520 1.125000 0.429520
1.125000 1.125000 0.429520
1.125000 1.125000 0.429520
1.125000 1.125000 0.429520
0.000000 1.125000 0.429520
0.100514 1.125000 0.429520
0.429520 1.125000 0.429520
1.125000 1.125000 0.429520
1.125000 1.125000 0.429520
1.125000 1.125000 0.429520
0.000000 1.125000 0.429520
0.100514 1.125000 0.429520
0.429520 1.125000 0.429520
1.125000 1.125000 0.429520
1.125000 1.125000 0.429520
1.125000 1.125000 0.429520
0.000000 0.000000 1.125000
0.100514 0.000000 1.125000
0.429520 0.000000 1.125000
1.125000 0.000000 1.125000
1.125000 0.000000 1.125000
1.125000 0.000000 1.125000
0.000000 0.100514 1.125000
0.100514 0.100514 1.125000
0.429520 0.100514 1.125000
1.125000 0.100514 1.125000
1.125000 0.100514 1.125000
1.125000 0.100514 1.125000
0.000000 0.429520 1.125000
0.100514 0.429520 1.125000
0.429520 0.429520 1.125000
1.125000 0.429520 1.125000
1.125000 0.429520 1.125000
1.125000 0.429520 1.125000
0.000000 1.125000 1.125000
0.100514 1.125000 1.125000
0.429520 1.125000 1.125000
1.125000 1.125000 1.125000
1.125000 1.125000 1.125000
1.125000 1.125000 1.125000
0.000000 1.125000 1.125000
0.100514 1.125000 1.125000
0.429520 1.125000 1.125000
1.125000 1.125000 1.125000
1.125000 1.125000 1.125000
1.125000 1.125000 1.125000
0.000000 1.125000 1.125000
0.100514 1.125000 1.125000
0.429520 1.125000 1.125000
1.125000 1.125000 1.125000
1.125000 1.125000 1.125000
1.125000 1.125000 1.125000
0.000000 0.000000 1.125000
0.100514 0.000000 1.125000
0.429520 0.000000 1.125000
1.125000 0.000000 1.125000
1.125000 0.000000 1.125000
1.125000 0.000000 1.125000
0.000000 0.100514 1.125000
0.100514 0.100514 1.125000
0.429520 0.100514 1.125000
1.125000 0.100514 1.125000
1.125000 0.100514 1.125000
1.125000 0.100514 1.125000
0.000000 0.429520 1.125000
0.100514 0.429520 1.125000
0.429520 0.429520 1.125000
1.125000 0.429520 1.125000
1.125000 0.429520 1.125000
1.125000 0.429520 1.125000
0.000000 1.125000 1.125000
0.100514 1.125000 1.125000
0.429520 1.125000 1.125000
1.125000 1.125000 1.125000
1.125000 1.125000 1.125000
1.125000 1.125000 1.125000
0.000000 1.125000 1.125000
0.100514 1.125000 1.125000
0.429520 1.125000 1.125000
1.125000 1.125000 1.125000
1.125000 1.125000 1.125000
1.125000 1.125000 1.125000
0.000000 1.125000 1.125000
0.100514 1.125000 1.125000
0.429520 1.125000 1.125000
1.125000 1.125000 1.125000
1.125000 1.125000 1.125000
1.125000 1.125000 1.125000
0.000000 0.000000 1.125000
0.100514 0.000000 1.125000
0.429520 0.000000 1.125000
1.125000 0.000000 1.125000
1.125000 0.000000 1.125000
1.125000 0.000000 1.125000
0.000000 0.100514 1.125000
0.100514 0.100514 1.125000
0.429520 0.100514 1.125000
1.125000 0.100514 1.125000
1.125000 0.100514 1.125000
1.125000 0.100514 1.125000
0.000000 0.429520 1.125000
0.100514 0.429520 1.125000
0.429520 0.429520 1.125000
1.125000 0.429520 1.125000
1.125000 0.429520 1.125000
1.125000 0.429520 1.125000
0.000000 1.125000 1.125000
0.100514 1.125000 1.125000
0.429520 1.125000 1.125000
1.125000 1.125000 1.125000
1.125000 1.125000 1.125000
1.125000 1.125000 1.125000
0.000000 1.125000 1.125000
0.100514 1.125000 1.125000
0.429520 1.125000 1.125000
1.125000 1.125000 1.125000
1.125000 1.125000 1.125000
1.125000 1.125000 1.125000
0.000000 1.125000 1.125000
0.100514 1.125000 1.125000
0.429520 1.125000 1.125000
1.125000 1.125000 1.125000
1.125000 1.125000 1.125000
1.125000 1.125000 1.125000
